X: 19
T: Herberts delight
%%VWML:Straights1779-2277g-p10-0 
F:http://www.vwml.org/record/Straights1779/2277g/p10
B: "Twenty Four Favourite Dances for the Year 1779", Thomas Straight, ed. p.10 #1
F: http://www.vwml.org/browse/browse-collections-dance-tune-books/browse-straights1779 
Z: 2014 John Chambers <jc:trillian.mit.edu>
M: 6/8
L: 1/8
K: A
[E2A,2]A AGA | [E2A,2]c cBc | cde fed | cBA GFE | [E2A,2]A AGA | [E2A,2]c cBc | cde fed | cdB A3 :| |
Aaa caa | Baa caa | Aaa caa | edc B3 |Aaa caa | Baa caa | cde fed | cdB A3 :| 
%%begintext align
%% First Lady and Gentleman half hey Contrary %% sides till they come into their own Places
%% lead down the Middle up again and cast
%% off change sides with top Cu: hands four
%% round at bottom Right and left at top 
%%endtext
T: Bonny Jamie O'
%R: march, reel
B: "Twenty Four Favourite Dances for the Year 1779", Thomas Straight, ed. p.10 #2
F: http://www.vwml.org/browse/browse-collections-dance-tune-books/browse-straights1779 
Z: 2014 John Chambers <jc:trillian.mit.edu>
M: C
L: 1/8
K: D
A2 |d2A2 {B}A2GF | E2e2 e3f | g2B2 e2d2 | c3d e2 (A3/B//c//) |d2A2 {B}A2GF | E2e2 e3f | g2B2 B2Tc2 | d3e d2 :|
|: f>g |a2A2 A2B>c | d2D2 D2B2 | A>BAF d<BAF | E3F E2f>g |a2A2 A2B>c | d2D2 D2d2 | Adfd e>de>f | d3e d2 :|
%%begintext align
%% Hey Contrary sides .|. then on your own
%% sides :|: Cross over two Cu: lead up the
%% Middle and cast off .|: hands six round
%% right and left at top :|:
%%endtext
